X: 28816
T: My Old Plantation Shoes
R: polka
M: 2/4
K: Fmajor
|:A2 Ac/A/|GF FG|Ac cA|c2 de|f2 fe|
[1 dc AB|cA GF|G2 Gd:|2 dc BA|GB/G/ F2|F2 AB||
c2 de|f4|G2 de|f2 ed|
c2 Ac|dc BG|A2 A>c|AG FG|
Ac de|f4|G2 de|f2 ed|
c2 Ac|dc BA|GB/G/ F2|F2 FG||

